X:55
T:Ballinasloe Fair
R:Reel
S:Paddy Canny, Clare (fiddle).
D:Clare FM broadcast.
N:As played
M:4/4
Z:Bernie Stocks
K:G
A3B {d}cBcA | GE~E2 GECG | AGAB {d}cBca | gedB (3.c.c.A dc |
{B}A3B {d}cBcA | ~G3A GECG | AGAB {d}cBca | gedB cdef ||
gc(3.c.c.c gcac | gc(3.c.c.c Bcde | gc~c2 a^ga=g | {a}gedB cdef |
gc(3.c.c.c gcac | gc(3.c.c.c ~B3c | A3B (3.c.c.B ca | gedB cdef ||
| ~g2{a}gf {a}gz{a}gf | gc~c2 Bcdf | gc~c2 a^ga=g | {a}gedB cdef |
gc(3.c.c.c gcac | gc(3.c.c.c ~B3c | A3B (3.c.c.B ca | gedB (3.c.c.A dc ||
<end>
<start>
